public/icons/logo.svg

<svg width="86" height="101" viewBox="0 0 86 101" fill="none" xmlns="http://www.w3.org/2000/svg">
<path d="M43.3134 66.3525H37.5536H37.3232L44.0046 85.7054V99.9897H49.7644V85.7054L55.9849 66.3525H50.2252L46.7693 79.0241L43.3134 66.3525Z" fill="#0F0F0F"/>
<path d="M63.3575 66.1226H57.8281V75.1078L63.3575 72.1127V66.1226Z" fill="#0F0F0F"/>
<path d="M82.2499 0.236328H67.5049V34.795L82.2499 30.4176V24.8882L73.0343 27.4225V19.3588H80.8676V14.5206H73.0343V4.84416H82.2499V0.236328Z" fill="#0F0F0F"/>
<path d="M43.5442 0.236328H38.4756V42.5158L43.5442 41.0097V0.236328Z" fill="#0F0F0F"/>
<path d="M16.5888 10.1372H11.7506C11.7506 10.1372 11.7254 8.6522 11.7254 7.92691C11.7254 7.23574 11.495 5.39261 8.96073 5.16222C6.42643 4.93182 4.3781 8.2941 5.73525 11.8436C7.57838 14.1475 11.1725 15.1151 13.5686 16.221C15.9646 17.3269 16.7172 19.6001 16.794 20.5984V48.1518L0.205859 52.99L0.205859 24.9759H5.04408V45.2503L11.495 43.4072V21.0592C9.46759 19.9533 4.60842 17.9706 3.22566 16.8186C-1.84292 11.9804 -0.254823 4.01026 3.66132 1.47575C6.65641 -0.36723 9.88189 -0.5976 13.3378 1.47575C16.3073 3.25731 17.0496 6.91175 16.5888 10.1372Z" fill="#0F0F0F"/>
<path d="M81.9932 75.6561L77.1554 75.6563V73.8131C77.1554 73.122 76.925 71.2788 74.3907 71.0484C71.8564 70.8181 69.3221 74.0435 71.1652 77.7298C73.0084 80.0337 76.6025 81.0014 78.9986 82.1072C81.3946 83.2131 82.1472 85.4863 82.224 86.4847V93.9998C82.2492 95.3822 79.2081 100.22 74.4159 100.22C69.6238 100.22 68.8865 99.2988 68.8865 99.2988C67.965 98.7613 65.615 96.7185 65.4307 94.691V90.3136H70.4993C70.3457 91.9263 70.7757 95.1518 73.7248 95.1518C76.6738 95.1518 76.9502 92.8479 76.9502 91.4655C76.9502 91.4655 77.1806 87.3185 76.9502 87.0881C76.7208 86.8587 76.2591 86.6273 76.2591 86.6273C74.2316 85.5214 70.4741 83.9504 69.0913 82.7984C63.332 77.269 65.1752 69.8965 69.0913 67.362C72.0864 65.519 75.3119 65.2886 78.7678 67.362C81.7373 69.1435 82.2236 73.5058 81.9932 75.6561Z" fill="#0F0F0F"/>
<path d="M25.5734 0.236328H20.5048H20.2744L20.5048 47.6911L35.4802 43.0833V25.1186H30.1812V38.7117L25.5734 39.8636V0.236328Z" fill="#0F0F0F"/>
<path d="M58.2893 9.91266H63.3579C63.5883 5.99581 62.4364 -0.217014 55.2943 0.00583351C49.3963 0.189863 47.6913 4.38374 47.4609 7.02824V40.0881L63.1275 35.4803L63.3579 25.1185H58.0589V31.1087L52.5296 32.7214V9.91266C52.5296 7.8396 52.7599 4.84452 55.5246 4.84452C58.2893 4.84452 58.3661 8.22312 58.2893 9.91266Z" fill="#0F0F0F"/>
<path fill-rule="evenodd" clip-rule="evenodd" d="M67.339 38.7117L72.1772 37.0989C72.4844 38.7117 73.237 41.9832 73.7899 42.1675C74.3428 42.3518 75.6458 40.5548 76.2602 39.6332L76.3242 37.5597V36.1773L80.7016 35.0254C80.8552 36.5613 80.9781 39.8636 80.2409 40.7852C79.5036 41.7067 77.0154 44.5482 75.8634 45.8538L80.2409 51.844L83.236 49.0793L86.0007 52.0744L82.084 55.991L86.0007 61.5204H80.4713L79.0889 59.4469C78.3977 60.2148 76.2781 61.7969 73.3291 61.9812C70.3801 62.1655 67.7996 59.6773 66.6476 57.6037C65.726 55.2998 65.2653 51.1528 67.5693 48.6185L70.3338 45.393C69.4124 43.7035 67.5234 40.0018 67.339 38.7117ZM72.7242 48.8489L77.1016 55.2998C76.6408 56.2214 75.3045 58.0184 73.6457 57.8341C71.9869 57.6498 70.9612 56.4518 70.731 55.5302C70.7165 55.3732 70.6982 55.2141 70.6795 55.0517C70.5063 53.5456 70.3011 51.7604 72.7242 48.8489Z" fill="#0F0F0F"/>
<path fill-rule="evenodd" clip-rule="evenodd" d="M0 66.1272V100.451H9.58295C10.7516 100.451 15.4262 98.335 16.1274 93.8682V72.9449C15.8937 70.7507 13.9771 66.2682 8.18056 65.8921H0V66.1272ZM5.52939 71.4298C6.97474 71.3547 9.90313 71.7454 10.0539 73.9096C10.2048 76.0739 10.1168 87.1355 10.0539 92.3957C9.92826 93.3726 8.8474 95.2363 5.52939 94.8756V71.4298Z" fill="#0F0F0F"/>
<path fill-rule="evenodd" clip-rule="evenodd" d="M20.2744 66.3525H30.8724C32.7155 66.7419 36.4018 68.5016 36.4018 72.4259V78.7329C36.4018 80.4064 35.2499 83.4981 32.4852 84.8062L37.7842 99.9897H32.0244L28.1077 86.2078H25.343L25.1126 99.9897H20.2744V66.3525ZM24.8823 71.0661V81.0978C29.3532 80.8708 29.6087 80.8237 30.6306 79.0083C31.6525 77.1929 31.4112 73.789 30.8435 72.8813C30.8254 72.8524 30.8072 72.823 30.7887 72.7932C30.2265 71.8857 29.4169 70.5789 24.8823 71.0661Z" fill="#0F0F0F"/>
</svg>

<svg width="86" height="101" fill="none" xmlns="http://www.w3.org/2000/svg"><path d="M43.313 66.353h-5.99l6.682 19.352V99.99h5.76V85.705l6.22-19.352h-5.76L46.77 79.024l-3.456-12.671ZM63.358 66.123h-5.53v8.985l5.53-2.995v-5.99ZM82.25.236H67.505v34.559l14.745-4.377v-5.53l-9.216 2.534V19.36h7.834V14.52h-7.834V4.844h9.216V.236ZM43.544.236h-5.068v42.28l5.068-1.506V.236ZM16.589 10.137H11.75s-.026-1.485-.026-2.21c0-.691-.23-2.534-2.764-2.765-2.535-.23-4.583 3.132-3.226 6.682 1.843 2.304 5.437 3.271 7.834 4.377 2.396 1.106 3.148 3.38 3.225 4.377v27.554L.206 52.99V24.976h4.838V45.25l6.451-1.843V21.06c-2.027-1.106-6.887-3.088-8.27-4.24-5.068-4.839-3.48-12.809.436-15.343 2.995-1.843 6.22-2.074 9.677 0 2.97 1.781 3.712 5.436 3.25 8.661ZM81.993 75.656h-4.838v-1.843c0-.691-.23-2.534-2.764-2.765-2.535-.23-5.069 2.995-3.226 6.682C73.008 80.034 76.603 81 79 82.107c2.396 1.106 3.148 3.38 3.225 4.378V94c.025 1.382-3.016 6.22-7.808 6.22s-5.53-.921-5.53-.921c-.921-.538-3.271-2.58-3.455-4.608v-4.377h5.068c-.153 1.612.277 4.838 3.226 4.838s3.225-2.304 3.225-3.686c0 0 .23-4.147 0-4.378-.23-.23-.69-.46-.69-.46-2.028-1.107-5.786-2.678-7.169-3.83-5.759-5.529-3.916-12.901 0-15.436 2.995-1.843 6.22-2.073 9.677 0 2.97 1.782 3.456 6.144 3.225 8.294ZM25.573.236h-5.298l.23 47.455 14.975-4.608V25.12h-5.299v13.593l-4.608 1.152V.236ZM58.29 9.913h5.068c.23-3.917-.922-10.13-8.064-9.907-5.898.184-7.603 4.378-7.833 7.022v33.06l15.666-4.608.23-10.361H58.06v5.99l-5.53 1.612V9.913c0-2.073.23-5.068 2.996-5.068 2.764 0 2.841 3.378 2.764 5.068Z" fill="#0F0F0F"/><path fill-rule="evenodd" clip-rule="evenodd" d="m67.339 38.712 4.838-1.613c.307 1.613 1.06 4.884 1.613 5.069.553.184 1.856-1.613 2.47-2.535l.064-2.073v-1.383l4.378-1.152c.153 1.536.276 4.839-.461 5.76-.737.922-3.226 3.763-4.378 5.069l4.378 5.99 2.995-2.765 2.765 2.995-3.917 3.917 3.917 5.53h-5.53l-1.382-2.074c-.691.768-2.81 2.35-5.76 2.534-2.949.184-5.53-2.304-6.681-4.377-.922-2.304-1.383-6.451.921-8.986l2.765-3.225c-.922-1.69-2.81-5.391-2.995-6.681Zm5.385 10.137 4.378 6.45c-.461.922-1.797 2.72-3.456 2.535-1.66-.184-2.685-1.382-2.915-2.304a21.456 21.456 0 0 0-.051-.478c-.174-1.506-.379-3.292 2.044-6.203ZM0 66.127v34.324h9.583c1.169 0 5.843-2.116 6.544-6.583V72.945c-.233-2.194-2.15-6.677-7.946-7.053H0v.235Zm5.53 5.303c1.445-.075 4.373.315 4.524 2.48.15 2.164.063 13.225 0 18.486-.126.977-1.207 2.84-4.525 2.48V71.43ZM20.274 66.353h10.598c1.843.389 5.53 2.149 5.53 6.073v6.307c0 1.673-1.152 4.765-3.917 6.073l5.3 15.184h-5.76l-3.917-13.782h-2.765l-.23 13.782h-4.839V66.353Zm4.608 4.713v10.032c4.471-.227 4.727-.274 5.749-2.09 1.021-1.815.78-5.219.212-6.127l-.054-.088c-.563-.907-1.372-2.214-5.907-1.727Z" fill="#0F0F0F"/></svg>
